X: 161
T: No_69_Hunting_Song_(e).krn
N: Derived from No_69_Hunting_Song_(e).krn
%%abc-version 2.0
%%abcx-abcm2ps-target-version 5.9.1 (29 Sep 2008)
%%abc-creator hum2abc beta
%%abcx-conversion-date 2019/03/15 08:29:13
%%humdrum-veritas 1870946101
%%humdrum-veritas-data 1711363754
%%linebreak <none>
%%barnumbers 0
L: 1/4
M: 4/4
K: C clef=bass
z/ E/E3/ | 
C/ [I:setbarnb 1]| 
[M:3/4]B,2A, ||  
[M:4/4]A,2CC | 
B,2B,z | 
z3/C/B,B, ||  
[M:3/4]A,2F, ||  
[M:4/4]F,2B,B, | 
A,2A,z | 
z3/B,/A,A, ||  
[M:3/4]F,2E, ||  
[M:4/4]E,2F,F, | 
E,4 | 
E,2B,B, | 
B,2C/C/C | 
B,2F,E, | 
z2B,B, | 
A,2A,z | 
z3/B,/A,A, ||  
[M:3/4]G,2E, ||  
[M:4/4]E,2F,F, | 
E,4 | 
E,z/ z/z2



